documentation/public/assets/images/dismissible-group.svg

<svg width="82" height="66" viewBox="0 0 82 66" fill="none" xmlns="http://www.w3.org/2000/svg">
<rect y="2.44531" width="57.0273" height="11.1092" rx="5.55461" fill="#545454"/>
<path d="M76.5672 12.1696C76.4072 12.1696 76.2472 12.1096 76.1272 11.9896L72.7972 8.65965L69.4672 11.9896C69.2272 12.2296 68.8272 12.2296 68.5872 11.9896C68.3472 11.7496 68.3472 11.3496 68.5872 11.1096L71.9172 7.77965L68.5872 4.44965C68.3472 4.20965 68.3472 3.80965 68.5872 3.56965C68.8272 3.32965 69.2272 3.32965 69.4672 3.56965L72.7972 6.89965L76.1272 3.56965C76.3672 3.32965 76.7672 3.32965 77.0072 3.56965C77.2472 3.80965 77.2472 4.20965 77.0072 4.44965L73.6772 7.77965L77.0072 11.1096C77.2472 11.3496 77.2472 11.7496 77.0072 11.9896C76.8872 12.1096 76.7272 12.1696 76.5672 12.1696Z" fill="#0F67F5"/>
<rect y="27.4453" width="57.0273" height="11.1092" rx="5.55461" fill="#545454"/>
<path d="M76.5672 37.1696C76.4072 37.1696 76.2472 37.1096 76.1272 36.9896L72.7972 33.6596L69.4672 36.9896C69.2272 37.2296 68.8272 37.2296 68.5872 36.9896C68.3472 36.7496 68.3472 36.3496 68.5872 36.1096L71.9172 32.7796L68.5872 29.4496C68.3472 29.2096 68.3472 28.8096 68.5872 28.5696C68.8272 28.3296 69.2272 28.3296 69.4672 28.5696L72.7972 31.8996L76.1272 28.5696C76.3672 28.3296 76.7672 28.3296 77.0072 28.5696C77.2472 28.8096 77.2472 29.2096 77.0072 29.4496L73.6772 32.7796L77.0072 36.1096C77.2472 36.3496 77.2472 36.7496 77.0072 36.9896C76.8872 37.1096 76.7272 37.1696 76.5672 37.1696Z" fill="#0F67F5"/>
<rect y="52.4453" width="57.0273" height="11.1092" rx="5.55461" fill="#545454"/>
<path d="M76.5672 62.1696C76.4072 62.1696 76.2472 62.1096 76.1272 61.9896L72.7972 58.6596L69.4672 61.9896C69.2272 62.2296 68.8272 62.2296 68.5872 61.9896C68.3472 61.7496 68.3472 61.3496 68.5872 61.1096L71.9172 57.7796L68.5872 54.4496C68.3472 54.2096 68.3472 53.8096 68.5872 53.5696C68.8272 53.3296 69.2272 53.3296 69.4672 53.5696L72.7972 56.8996L76.1272 53.5696C76.3672 53.3296 76.7672 53.3296 77.0072 53.5696C77.2472 53.8096 77.2472 54.2096 77.0072 54.4496L73.6772 57.7796L77.0072 61.1096C77.2472 61.3496 77.2472 61.7496 77.0072 61.9896C76.8872 62.1096 76.7272 62.1696 76.5672 62.1696Z" fill="#0F67F5"/>
</svg>

<svg width="82" height="66" fill="none" xmlns="http://www.w3.org/2000/svg"><rect y="2.45" width="57.03" height="11.11" rx="5.55" fill="#545454"/><path d="M76.57 12.17a.62.62 0 0 1-.44-.18L72.8 8.66l-3.33 3.33a.63.63 0 0 1-.88 0 .63.63 0 0 1 0-.88l3.33-3.33-3.33-3.33a.63.63 0 0 1 0-.88.63.63 0 0 1 .88 0L72.8 6.9l3.33-3.33a.63.63 0 0 1 .88 0c.24.24.24.64 0 .88l-3.33 3.33L77 11.11c.24.24.24.64 0 .88a.62.62 0 0 1-.44.18Z" fill="#0F67F5"/><rect y="27.45" width="57.03" height="11.11" rx="5.55" fill="#545454"/><path d="M76.57 37.17a.62.62 0 0 1-.44-.18l-3.33-3.33-3.33 3.33a.63.63 0 0 1-.88 0 .63.63 0 0 1 0-.88l3.33-3.33-3.33-3.33a.63.63 0 0 1 0-.88.63.63 0 0 1 .88 0l3.33 3.33 3.33-3.33a.63.63 0 0 1 .88 0c.24.24.24.64 0 .88l-3.33 3.33L77 36.11c.24.24.24.64 0 .88a.62.62 0 0 1-.44.18Z" fill="#0F67F5"/><rect y="52.45" width="57.03" height="11.11" rx="5.55" fill="#545454"/><path d="M76.57 62.17a.62.62 0 0 1-.44-.18l-3.33-3.33-3.33 3.33a.63.63 0 0 1-.88 0 .63.63 0 0 1 0-.88l3.33-3.33-3.33-3.33a.63.63 0 0 1 0-.88.63.63 0 0 1 .88 0l3.33 3.33 3.33-3.33a.63.63 0 0 1 .88 0c.24.24.24.64 0 .88l-3.33 3.33L77 61.11c.24.24.24.64 0 .88a.62.62 0 0 1-.44.18Z" fill="#0F67F5"/></svg>
